X: 2
T:Polka Bognolaise 2
M:2/4
L:1/8
S:Skolvan
R:Polka
K:G major
   B>c dB | cA BA | GB AG | EE/2F/2 ED | B>c dB | cA B>A | GB AF |1 G2 G
D :|2 G2 GG/2F/2 |
: EA Bc | AB GE | D>E FG |Ac BA | G>A Bc | dB cA | FG AF | G2  G2   :|
